T: Boys Of Bluehill, The
M: 4/4
L: 1/8
K: Dmaj
d2 | BAFE D2 (3DFA | BABd eAde | fAAf fedc | decd  B2 Bd | BAFE D2 (3DFA | BABd eAde | fAAf fedc | d6 :|z2 |  a2f a2 a2 ef | gdga bdag | fddf edfe | (3def ed B2Bd | BAFE D2 (3DFA | BABd eAde | fAAf fedc | d6 :|
